public/screw.svg

<svg xmlns="http://www.w3.org/2000/svg" viewBox="0 0 512 512" style="height: 512px; width: 512px;"><path d="M0 0h512v512H0z" fill="#000" fill-opacity="1"></path><g class="" transform="translate(0,0)" style=""><path d="M259.2 20.25c-24.2.16-49.4 5.94-73 16.17-26.5 40.57-38.4 73.68-30.9 118.98-26.9-15.8-43.1-31.6-48.5-58.83-8.74 11.03-16 22.83-21.41 35.13-14.06 32-15.85 67.5 1.15 104.1L368.2 77.3c-22.6-34.19-53.9-51.23-88.5-55.81-4.7-.62-9.4-1-14.2-1.16-2.1-.1-4.2-.1-6.3-.1zm67.6 101.85l-40.9 23-61.5 93.9-41.3 60.6 15.4 10.6 22-32.3c8.3 12.2 16.8 24.2 25.7 36.1l86.7-120.9c-7.9-14.7-16.2-29.2-24.9-43.5zm-76.1 42.8l-74.4 41.8c7.1 12.6 14.6 25.1 22.4 37.6zm108.2 22.4L239.3 355.5l15.2 10.8 15.4-21.6c11 13.6 22.4 26.9 34.1 39.9l69.4-103.7c-6.7-17.2-14.1-34.2-22-50.9l22.7-31.9zm37.3 93.7l-14.6 21.6s-.1-.1-.1-.2l-24.9 37.3-61.3 90.8 15.4 10.4 19.4-28.7c8 8.2 16.2 16.2 24.6 23.9l47.5-66.9c-3.9-14.9-8.3-29.8-13.1-44.5l22.5-33.3zm26.3 93.1L408.2 394c-.1-.3-.1-.5-.2-.8l-39.4 55.5.1.1-13.5 18.8 15.2 11 12.6-17.5c12.9 10.8 26.2 21 39.6 30.7-1.8-24.3-4.9-48.6-9.3-72.7l24.4-34z" fill="#fff" fill-opacity="1"></path></g></svg>

<?xml version="1.0" encoding="UTF-8" standalone="no"?>
<!DOCTYPE svg PUBLIC "-//W3C//DTD SVG 1.1//EN" "http://www.w3.org/Graphics/SVG/1.1/DTD/svg11.dtd">
<svg width="100%" height="100%" viewBox="0 0 512 512" version="1.1" xmlns="http://www.w3.org/2000/svg" xmlns:xlink="http://www.w3.org/1999/xlink" xml:space="preserve" xmlns:serif="http://www.serif.com/" style="fill-rule:evenodd;clip-rule:evenodd;stroke-linejoin:round;stroke-miterlimit:2;">
    <g>
        <path d="M259.2,20.25C235,20.41 209.8,26.19 186.2,36.42C159.7,76.99 147.8,110.1 155.3,155.4C128.4,139.6 112.2,123.8 106.8,96.57C98.06,107.6 90.8,119.4 85.39,131.7C71.33,163.7 69.54,199.2 86.54,235.8L368.2,77.3C345.6,43.11 314.3,26.07 279.7,21.49C275,20.87 270.3,20.49 265.5,20.33C263.4,20.23 261.3,20.23 259.2,20.23L259.2,20.25ZM326.8,122.1L285.9,145.1L224.4,239L183.1,299.6L198.5,310.2L220.5,277.9C228.8,290.1 237.3,302.1 246.2,314L332.9,193.1C325,178.4 316.7,163.9 308,149.6L326.8,122.1ZM250.7,164.9L176.3,206.7C183.4,219.3 190.9,231.8 198.7,244.3L250.7,164.9ZM358.9,187.3L239.3,355.5L254.5,366.3L269.9,344.7C280.9,358.3 292.3,371.6 304,384.6L373.4,280.9C366.7,263.7 359.3,246.7 351.4,230L374.1,198.1L358.9,187.3ZM396.2,281L381.6,302.6C381.6,302.6 381.5,302.5 381.5,302.4L356.6,339.7L295.3,430.5L310.7,440.9L330.1,412.2C338.1,420.4 346.3,428.4 354.7,436.1L402.2,369.2C398.3,354.3 393.9,339.4 389.1,324.7L411.6,291.4L396.2,281ZM422.5,374.1L408.2,394C408.1,393.7 408.1,393.5 408,393.2L368.6,448.7L368.7,448.8L355.2,467.6L370.4,478.6L383,461.1C395.9,471.9 409.2,482.1 422.6,491.8C420.8,467.5 417.7,443.2 413.3,419.1L437.7,385.1L422.5,374.1Z" style="fill:white;fill-rule:nonzero;"/>
    </g>
</svg>
